build/assets/fonts/7337d9d063907f6fd8d49214982e18a6.svg

<svg width="100" height="60" viewBox="0 0 100 60" version="1.1" xmlns="http://www.w3.org/2000/svg" xmlns:xlink="http://www.w3.org/1999/xlink"><title>GiroPay-light</title><desc>Created with Sketch.</desc><g id="Light-Payment-badges" stroke="none" stroke-width="1" fill="none" fill-rule="evenodd" transform="translate(-451.000000, -1089.000000)"><g id="GiroPay-light" transform="translate(451.000000, 1089.000000)"><rect id="Rectangle" fill="#FFF" x="0" y="0" width="100" height="60" rx="4"/><path d="M23.6853403,17.0366686 L74.3146835,17.0366686 C76.8808923,17.0366686 78.9602826,19.11956 78.9602826,21.6885243 L78.9602826,38.3125854 C78.9602826,40.8800548 76.8808923,42.9633314 74.3146835,42.9633314 L23.6853403,42.9633314 C21.1202338,42.9633314 19.0397174,40.8800548 19.0397174,38.3125854 L19.0397174,21.6885243 C19.0397174,19.11956 21.1202338,17.0366686 23.6853403,17.0366686 Z" id="_92653320" fill="#000268"/><path d="M20.946392,21.8476948 L20.946392,38.1549342 C20.946392,39.7599762 22.2468376,41.0617499 23.850961,41.0617499 L50.3761494,41.0617499 L50.3761494,18.9408789 L23.850961,18.9408789 C22.2468376,18.9408789 20.946392,20.2426287 20.946392,21.8476948 L20.946392,21.8476948 L20.946392,21.8476948 Z" id="_92186184" fill="#FFF"/><path d="M52.2685629,35.8745988 L52.2685629,26.730034 L54.3318939,26.730034 L54.3318939,27.9056532 L54.356893,27.9056532 C54.8056747,26.9920384 55.7506227,26.57875 56.7694172,26.57875 C58.5604457,26.57875 59.5423047,28.2937883 59.5423047,29.8695524 C59.5423047,31.7962878 58.5104475,33.3972058 56.5836398,33.3972058 C55.8005965,33.3972058 54.9545174,33.109686 54.5307347,32.3338024 L54.5057356,32.3338024 L54.5057356,35.8745988 L52.2685629,35.8745988 Z M57.2297755,29.9198603 C57.2297755,29.0565289 56.7455451,28.3057987 55.8744669,28.3057987 C55.0530026,28.3057987 54.5057356,29.031375 54.5057356,30.0073074 C54.5057356,30.9581104 55.1279992,31.671677 55.8744669,31.671677 C56.7194197,31.671677 57.2297755,30.9581104 57.2297755,29.9198603 Z" id="_92186184-path" fill="#FFF"/><path d="M67.1107609,33.247441 L65.0604682,33.247441 C65.047022,32.8964696 65.0104707,32.5601617 65.0104707,32.2212013 L64.9854716,32.2212013 C64.4758829,33.0357439 63.853643,33.3972058 62.9336935,33.3972058 C61.6530215,33.3972058 60.5096157,32.7602344 60.5096157,31.3458596 C60.5096157,29.3571924 62.661006,29.1188221 63.853643,29.1188221 C64.2140055,29.1188221 64.6128134,29.1571197 64.8985629,29.2074276 C64.8851404,28.3189423 64.2259413,28.080572 63.4190265,28.080572 C62.6979171,28.080572 61.9753223,28.2183271 61.3556955,28.5692978 L61.3176337,27.0423219 C62.113739,26.7165044 62.9467561,26.57875 63.9036405,26.57875 C65.5577377,26.57875 66.986893,27.2927019 66.986893,29.2817311 L66.986893,31.7088407 C66.986893,32.2212013 67.0118914,32.7350804 67.1107609,33.247441 Z M62.5979458,31.1829505 C62.5979458,31.6345127 62.9956274,31.8968792 63.5178953,31.8968792 C64.3639751,31.8968792 64.8985629,31.1210188 64.8985629,30.3582788 C64.6128134,30.3447731 64.2890021,30.3211145 63.9536143,30.3211145 C63.194084,30.3211145 62.5979458,30.557965 62.5979458,31.1829505 Z" id="_92186184-path" fill="#FFF"/><path d="M68.1175954,35.8745988 C68.5779293,35.975214 69.0375449,36.0258834 69.5098152,36.0258834 C71.5616177,36.0258834 72.0458245,34.4365898 72.6800245,32.7973742 L75.0556139,26.730034 L72.8169313,26.730034 L71.4866211,30.9832644 L71.461622,30.9832644 L70.0690186,26.730034 L67.6580042,26.730034 L70.2809221,33.3972058 C70.1190161,33.9730173 69.6967196,34.2988348 69.1490928,34.2988348 C68.8372179,34.2988348 68.564891,34.2605372 68.2660788,34.1610797 L68.1175954,35.8745988 L68.1175954,35.8745988 Z" id="_92186184-path" fill="#FFF"/><path d="M29.2467902,26.730034 L31.2735699,26.730034 L31.2735699,32.4847004 C31.2735699,35.1621661 29.9813214,36.0258834 27.3703399,36.0258834 C26.300061,36.0258834 25.417047,35.8006574 24.8958811,35.612595 L25.0077888,33.8356488 C25.6908601,34.17309 26.263486,34.3731628 27.1964982,34.3731628 C28.4887467,34.3731628 29.1848563,33.7601869 29.1848563,32.4847004 L29.1848563,32.1337535 L29.1598578,32.1337535 C28.6256529,32.8964696 27.8795451,33.247441 26.9831086,33.247441 C25.2066297,33.247441 24.0997994,31.8968792 24.0997994,29.9701438 C24.0997994,28.031398 25.0077888,26.57875 27.0215295,26.57875 C27.978031,26.57875 28.7494971,27.1046395 29.2232772,27.9056532 L29.2467902,27.9056532 L29.2467902,26.730034 Z M26.4119688,29.9330039 C26.4119688,30.9461 27.0095938,31.5207783 27.680705,31.5207783 C28.475684,31.5207783 29.109884,30.8455093 29.109884,29.8443991 C29.109884,29.1188221 28.6875868,28.3057987 27.680705,28.3057987 C26.8476878,28.3057987 26.4119688,29.0445186 26.4119688,29.9330039 Z" id="_47303032-copy" fill="#FF0007"/><polygon id="_47303032-path" fill="#FF0007" points="35.0559286 24.0154046 32.817629 24.0154046 32.817629 25.6666306 35.0559286 25.6666306"/><polygon id="_47303032-path" fill="#FF0007" points="32.8187552 33.247441 35.0559286 33.247441 35.0559286 26.730034 32.8187552 26.730034"/><path d="M41.2873873,26.6542113 C41.0635474,26.6174091 40.7897343,26.57875 40.5293431,26.57875 C39.5594197,26.57875 39.0002163,27.1046395 38.6144711,27.9308072 L38.589472,27.9308072 L38.589472,26.730034 L36.5507566,26.730034 L36.5507566,33.247441 L38.7883129,33.247441 L38.7883129,30.4960332 C38.7883129,29.2194373 39.3736416,28.4566967 40.4174353,28.4566967 C40.6793126,28.4566967 40.9266405,28.4566967 41.1754795,28.5306388 L41.2873873,26.6542113 L41.2873873,26.6542113 Z" id="_47303032-path" fill="#FF0007"/><path d="M45.1406678,33.3972058 C43.0023395,33.3972058 41.374344,32.1472592 41.374344,29.9952971 C41.374344,27.8302165 43.0023395,26.57875 45.1406678,26.57875 C47.2793546,26.57875 48.908477,27.8302165 48.908477,29.9952971 C48.908477,32.1472592 47.2793546,33.3972058 45.1406678,33.3972058 Z M45.1406678,31.8214418 C46.1736513,31.8214418 46.5963077,30.9581104 46.5963077,29.9952971 C46.5963077,29.0193646 46.1736513,28.1560332 45.1406678,28.1560332 C44.1088098,28.1560332 43.6865133,29.0193646 43.6865133,29.9952971 C43.6865133,30.9581104 44.1088098,31.8214418 45.1406678,31.8214418 Z" id="_47303032-path" fill="#FF0007"/></g></g></svg>

<svg width="100" height="60" xmlns="http://www.w3.org/2000/svg"><g fill="none" fill-rule="evenodd"><rect fill="#FFF" width="100" height="60" rx="4"/><path d="M23.685 17.037h50.63a4.649 4.649 0 0 1 4.645 4.652v16.624c0 2.567-2.08 4.65-4.645 4.65h-50.63a4.65 4.65 0 0 1-4.645-4.65V21.689a4.65 4.65 0 0 1 4.645-4.652z" fill="#000268"/><path d="M20.946 21.848v16.307c0 1.605 1.3 2.907 2.905 2.907h26.525V18.94H23.851a2.906 2.906 0 0 0-2.905 2.907zm31.323 14.027V26.73h2.063v1.176h.025c.449-.914 1.394-1.327 2.412-1.327 1.791 0 2.773 1.715 2.773 3.29 0 1.927-1.032 3.528-2.958 3.528-.783 0-1.63-.287-2.053-1.063h-.025v3.54h-2.237zm4.96-5.955c0-.863-.483-1.614-1.355-1.614-.821 0-1.368.725-1.368 1.701 0 .951.622 1.665 1.368 1.665.845 0 1.356-.714 1.356-1.752zm9.881 3.327h-2.05c-.013-.35-.05-.687-.05-1.026h-.025c-.51.815-1.131 1.176-2.051 1.176-1.281 0-2.424-.637-2.424-2.051 0-1.989 2.151-2.227 3.344-2.227.36 0 .759.038 1.045.088-.014-.888-.673-1.126-1.48-1.126-.721 0-1.444.137-2.063.488l-.038-1.527c.796-.325 1.629-.463 2.586-.463 1.654 0 3.083.714 3.083 2.703v2.427c0 .512.025 1.026.124 1.538zm-4.512-2.064c0 .452.398.714.92.714.846 0 1.38-.776 1.38-1.539-.285-.013-.609-.037-.944-.037-.76 0-1.356.237-1.356.862zm5.52 4.692c.46.1.92.15 1.392.15 2.052 0 2.536-1.588 3.17-3.228l2.376-6.067h-2.24l-1.33 4.253h-.024l-1.393-4.253h-2.411l2.623 6.667c-.162.576-.584.902-1.132.902a2.66 2.66 0 0 1-.883-.138l-.148 1.714z" fill="#FFF"/><path d="M29.247 26.73h2.027v5.755c0 2.677-1.293 3.54-3.904 3.54a7.48 7.48 0 0 1-2.474-.412l.112-1.777c.683.337 1.255.537 2.188.537 1.293 0 1.989-.613 1.989-1.888v-.351h-.025c-.534.762-1.28 1.113-2.177 1.113-1.776 0-2.883-1.35-2.883-3.277 0-1.939.908-3.391 2.922-3.391.956 0 1.727.526 2.201 1.327h.024V26.73zm-2.835 3.203c0 1.013.598 1.588 1.269 1.588.795 0 1.429-.675 1.429-1.677 0-.725-.422-1.538-1.43-1.538-.832 0-1.268.739-1.268 1.627zm8.644-5.918h-2.238v1.652h2.238zm-2.237 9.232h2.237V26.73h-2.237zm8.468-6.593a4.81 4.81 0 0 0-.758-.075c-.97 0-1.529.526-1.915 1.352h-.025V26.73h-2.038v6.517h2.237v-2.751c0-1.277.586-2.04 1.63-2.04.261 0 .509 0 .757.075l.112-1.877zm3.853 6.743c-2.138 0-3.766-1.25-3.766-3.402 0-2.165 1.628-3.416 3.767-3.416 2.138 0 3.767 1.251 3.767 3.416 0 2.152-1.629 3.402-3.767 3.402zm0-1.576c1.034 0 1.456-.863 1.456-1.826 0-.976-.422-1.839-1.455-1.839-1.032 0-1.454.863-1.454 1.84 0 .962.422 1.825 1.454 1.825z" fill="#FF0007"/></g></svg>
